icons/1_Primary/Healthchecks.svg

<svg xmlns="http://www.w3.org/2000/svg" viewBox="0 0 1024 1024">
   <circle cx="512" cy="512" r="512" style="fill:#09311b"/>
   <path d="m539.46 256.31-69.9-.65-51.4 359.16-7.43-49.92H271.84l-6.09 44.63 106 .19 8.84 64.49 76.81.15 47.3-339.43 8.08 57.64h45.45Zm30.87 223.84-45.37.09L565 768.34l60.43-.08 22.31-158.55 104.07.08 6.41-44.66-149.74.09L595.1 660Z" style="fill:#fff"/>
</svg>

<svg width="1024" height="1024" viewBox="0 0 1024 1024" fill="none" xmlns="http://www.w3.org/2000/svg">
<g clip-path="url(#clip0_2_2379)">
<path d="M512 1024C794.77 1024 1024 794.77 1024 512C1024 229.23 794.77 0 512 0C229.23 0 0 229.23 0 512C0 794.77 229.23 1024 512 1024Z" fill="#71A372"/>
<path d="M539.46 256.31L469.56 255.66L418.16 614.82L410.73 564.9H271.84L265.75 609.53L371.75 609.72L380.59 674.21L457.4 674.36L504.7 334.93L512.78 392.57H558.23L539.46 256.31ZM570.33 480.15L524.96 480.24L565 768.34L625.43 768.26L647.74 609.71L751.81 609.79L758.22 565.13L608.48 565.22L595.1 660L570.33 480.15Z" fill="white"/>
</g>
<defs>
<clipPath id="clip0_2_2379">
<rect width="1024" height="1024" fill="white"/>
</clipPath>
</defs>
</svg>
